X:83
T:Bean Ph\'aid\'in
R:slip jig
Z:hn-slipjig-83
M:9/8
L:1/8
K:D
FED FAA FAA | FED FAF E2D | FED FAA FAA | BAA dAF E2D :|
|: ABd dfe edB | ABd dfe e2d | ABd dfe edA | BAA dAF E2D :| 
<end>
<start>
